X:771
T:The Western Lasses
C:Dunlap.
M:C|
L:1/8
K:C
(GF)|"C"EGcG AGcG|EGcG "G"(ED)(DG)|"C"EGcG AGcG|"G"EGDF "C"(EC)(CG)|\
EGcG AGcG|EGcG "G"(ED)(DG)|"C"EGAB "F"cdef|"G"aefd "C"(ec) c2|
"C"e3 e "G"d2 (dc)|"F"AcGc AcGc|"C"e3 e "G"d2 (dc)|"F"(3ABc GE "G"(ED) D2|\
"C"efec "G"dedc|"F"(3ABc Gc (3ABc Gc|"Am"ea{b}ag "G"egdc|\
"F"(3ABc GE "G"(ED) D2||
"C"efge c2 (cd)|"Am"ea{b}ag aged|"C"(3efg ed (cB)cd|"Am"ea{b}ag (3efg dg|\
"C"efge c2 (cd)|"Am"ea{b}ag aged|"C"(3efg ed cBcG|"F"(3ABc GF "C"(EC) C2|]
